X:4725
T:Polska  Hambo 
L:1/8
M:3/4
O:Sweden
R:Hambo
R:Polska
Z:Carol Turner
%%TUNEURL: http://www.leeds.ac.uk/music/Info/RRTuneBk/gettune/00000ba7.html
%%ID:00000ba7
K:G min
D |\
G>B d2 g>b | a^f/2a/2 g2 d>c | \
Bd/2B/2 AB/2A/2 GA/2B/2 | BA/2G/2 ^F/2G/2A/2^F/2 D>D |\
G>B d2 g>b | a^f/2a/2 g2 d>c |\
Bd/2B/2 AB/2A/2 GB/2G/2 | D/2^F/2A/2^F/2 G>D::\
d>c B/2A/2B/2c/2 dd/2e/2 | cc/2A/2  FF/2A/2 cc/2d/2 |\
B>A G/2^F/2G/2 B/2 dB | BA/2G/2 ^F/2G/2A/2^F/2 D>D |\
d>c B/2A/2B/2c/2 dd/2e/2 | cc/2A/2  FF/2A/2 cc/2d/2 |\
B>A G/2^F/2G/2B/2 dB | A/2B/2A/2^F/2 G4:|
